X:1
T:Title
%%score 1 2 3
L:1/8
Q:1/4=100
M:2/4
K:G
V:1 treble nm="Grand Piano"
V:2 treble nm="Grand Piano, Melody"
V:3 bass nm="Grand Piano"
V:1
 G2 G2 | D2 B,2 | A,[K:bass]G, CB, | A,G, A,2 | D2 D2 | B,A, B,2 | E2 D2 | D4 | G2 G2 | %9
 D2[K:bass] B,2 | A,G, CB, | A,G, A,2 | D2 D2 | B,A, B,2 | E2 D2 | D4 | z2 B,D | G2 GE | DD B,D | %19
 EE DB, | G2 G2 | D2 D2 | B,A, B,2 | E2 D2 | D2 B,D | G2 GE | DD B,D | EE DB, | G2 G2 | D2 D2 | %30
 B,A, B,2 | E2 D2 | D4 |] %33
V:2
 D2 D2 | D2 D2 | EF GE | ED D2 | G2 G2 | DB, ED | B,2 A,2 | G,4 | D2 D2 | D2 D2 | EF GE | ED D2 | %12
 G2 G2 | D[K:bass]B, ED | B,2 A,2 | G,4 | z2 B,A, | G,2 G,B, | A,A, G,B, | B,A, G,B, | D2 D2 | %21
 G2 G2 | DB, ED | B,2 A,2 | G,2 B,A, | G,2 G,B, | A,A, G,B, | B,A, G,B, | D2 D2 | G2 G2 | %30
 D[K:bass]B, ED | B,2 A,2 | G,4 |] %33
V:3
 G,2 G,2 | G,2 G,2 | B,A, G,B, | D2 D2 | G,2 G,2 | G,F, E,D, | E,2 D,2 | G,4 | G,2 G,2 | G,2 G,2 | %10
 B,A, G,B, | D2 D2 | G,2 G,2 | G,F, E,D, | E,2 D,2 | G,4 | z2 G,F, | E,2 E,G, | D,D, E,G, | %19
 D,D, G,E, | G,2 G,2 | G,2 G,2 | G,F, E,D, | E,2 D,2 | [G,,G,]2 G,F, | E,2 E,G, | D,D, E,G, | %27
 D,D, G,E, | G,2 G,2 | G,2 G,2 | G,F, E,D, | E,2 D,2 | [G,,G,]4 |] %33

